symbols/web/replay/materialsymbolsoutlined/replay_wght500grad200_40px.svg

<svg xmlns="http://www.w3.org/2000/svg" height="40" width="40"><path d="M20 37.875q-3.292 0-6.208-1.271-2.917-1.271-5.084-3.437Q6.542 31 5.292 28.104t-1.25-6.229H7.75q0 5.125 3.583 8.687 3.584 3.563 8.667 3.563t8.667-3.583q3.583-3.584 3.583-8.667t-3.5-8.667q-3.5-3.583-8.625-3.583h-.583l2.791 2.792-2.416 2.5-7.167-7.209L19.917.583 22.333 3l-2.958 2.917H20q3.292 0 6.208 1.25 2.917 1.25 5.084 3.416 2.166 2.167 3.416 5.084 1.25 2.916 1.25 6.208 0 3.333-1.25 6.229t-3.416 5.063q-2.167 2.166-5.084 3.437-2.916 1.271-6.208 1.271Z"/></svg>

<svg xmlns="http://www.w3.org/2000/svg" height="40" width="40"><path d="M20 37.875Q16.708 37.875 13.792 36.604Q10.875 35.333 8.708 33.167Q6.542 31 5.292 28.104Q4.042 25.208 4.042 21.875H7.75Q7.75 27 11.333 30.562Q14.917 34.125 20 34.125Q25.083 34.125 28.667 30.542Q32.25 26.958 32.25 21.875Q32.25 16.792 28.75 13.208Q25.25 9.625 20.125 9.625H19.542L22.333 12.417L19.917 14.917L12.75 7.708L19.917 0.583L22.333 3L19.375 5.917H20Q23.292 5.917 26.208 7.167Q29.125 8.417 31.292 10.583Q33.458 12.75 34.708 15.667Q35.958 18.583 35.958 21.875Q35.958 25.208 34.708 28.104Q33.458 31 31.292 33.167Q29.125 35.333 26.208 36.604Q23.292 37.875 20 37.875Z"/></svg>
